X: 1565
T: Penceresi Yeşil Perde
C: Çopur Ahmet
O: Turkey
F: http://compmusic.upf.edu/node/140
N: gerdaniye--turku--raksaksagi--penceresi_yesil--konya
N: makam= gerdaniye
N: form= turku
N: usul= raksaksagi = 9/8
M: 9/8
L: 1/16
K: C _2/4B ^3/4f  
Q: 1/4=174
%%MIDI tuningsystem comma53
z4 d2d2 dgg^2/4f edc2 B2 | A3GcB cBcd {c}B3A A4  | 
w:   |   | 
z4 d4 d2dc dec2 B2 | A3Gc3Bcd {d}B3A A4  | \
w:   |   | 
d2g2 g2ga f2g4g4 | 
w:  Pen *  ce *  *  *  re si   | 
d4e2 f2g2 g3f g2z2  | z4 d2g2 g2g2 g2g4 | \
w:  ye şil  *  *  per *  de    |  Pen *  ce re si   | 
a4{c'}bc' b2a2 g2g2 f2e2  | 
w:  ye *  şil  *  *  *  per de    | 
z4 d3c d2d2 d2c2 B2 | A3G{d}c2 cBcd B3A A4  | \
w:  Sen_ *  uğ rat tın   |  be *  *  ni  be *  ni  *  der *  de    | 
z4 d3c d2d2 d2c2 B2 | 
w:  Sen_ *  uğ rat tın   | 
A3G{d}c2 cBcd B3A A4  | z4 d2d2 dgg^2/4f edc2 B2 | 
w:  be *  *  ni  be *  ni  *  der *  de    |  Ey *  me *  len *  *  *  *  di   | 
A3GcB cBcd {c}B3A A4  | z4 d4 d2dc dec2 B2 | \
w:  sür *  me *  *  *  *  *  *  len *  di    |  Göğ sü  çap *  raz   | 
A3Gc3Bcd {d}c3B A4  | 
w:  *  *  düğ *  me *  *  len *  di    | 
z4 d2d2 dgg^2/4f edc2 B2 | A3GcB cBcd {c}B3A A4  | 
w:   |   | 
z4 d4 d2dc dec2 B2 | A3Gc3Bcd {d}B3A A4  | \
w:   |   | 
d2g2 g2ga f2g4g4 | 
w:  Pen *  ce *  *  *  re si   | 
d4e2 f2g2 g3f g2z2  | z4 d2g2 g2g2 g2g4 | \
w:  ye şil  *  *  per *  de    |  Pen *  ce re si   | 
a4{c'}bc' b2a2 g2g2 f2e2  | 
w:  ye *  şil  *  *  *  per de    | 
z4 d3c d2d2 d2c2 B2 | A3G{d}c2 cBcd B3A A4  | \
w:  Sen_ *  uğ rat tın   |  be *  *  ni  be *  ni  *  der *  de    | 
z4 d3c d2d2 d2c2 B2 | 
w:  Sen_ *  uğ rat tın   | 
A3G{d}c2 cBcd B3A A4  | z4 d2d2 dgg^2/4f edc2 B2 | 
w:  be *  *  ni  be *  ni  *  der *  de    |  Ey *  me *  len *  *  *  *  di   | 
A3GcB cBcd {c}B3A A4  | z4 d4 d2dc dec2 B2 | \
w:  sür *  me *  *  *  *  *  *  len *  di    |  Göğ sü  çap *  raz   | 
A3Gc3Bcd {d}c3B A4  | 
w:  *  *  düğ *  me *  *  len *  di    | 
|


